X: 4282
T: Bobbin' John
R: three-two
M: 3/2
K: Aminor
|:e2A2 A2c2 B4|e2A2 A2c2 BcdB|e2A2 A2c2 B3c|d2G2 G2d2 BcdB:|
|:c2ef g2c2 e4|c2ef g2c2 e2g2|a3f g3f e4|d2G2 G2d2 BcdB:|

